X:717
T:Langstrom's pony
T:The Langstern pony
R:Jig
B:Irish Traditional Music Session Tunes 2
B:Fiddler's fakebook (?)
D:Mary Bergin: Feadoga Stain (?)
D:De Dannan: Mist Covered Mountain (?)
S:My arrangement from various sources
Z:Transcription, minor arr., chords:Mike Long
M:6/8
L:1/8
K:D
"D"fed "A"cAA|"A"EAA cAA|"D"fed "A"cAA|"G"BGB dcB|\
"D"fed "A"cAA|"A"EAA cAA|"D"(f/g/a)f "A"gfe|"G"dBG Bcd:|
|:"A"cee "D"dff|"A"cee ecA|"A"cee "G"g2e|"G"dBG Bcd|\
"A"cee "D"dff|"A"cee efg|"D"(f/g/a)f "A"gfe|"G"dBG Bcd:|
|:"A"Ace ~a3|ecA ecA|"G"GBd ~g3|dBG Bcd|\
"D"faf "A"gfe|"D"fed "A"ecA|"D"f2a "A"gfe|"G"dBG Bcd:|
|:"A"AEA A2e|cAc ecB|AEA AB=c|"G"BGB dcB|\
"A"AEA A2e|cAc efg|"D"(f/g/a)f "A"gfe|"G"dBG Bcd:|
